material/.icons/material/globe-model.svg

<svg xmlns="http://www.w3.org/2000/svg" viewBox="0 0 24 24"><path d="M17.36 2.64l-1.41 1.42A6.978 6.978 0 0118 9a7 7 0 01-7 7c-1.85 0-3.63-.74-4.94-2.05l-1.42 1.41A8.945 8.945 0 0010 17.93V20H6v2h10v-2h-4v-2.06c4.55-.51 8-4.36 8-8.94 0-2.38-.95-4.67-2.64-6.36M11 3.5A5.5 5.5 0 005.5 9a5.5 5.5 0 005.5 5.5A5.5 5.5 0 0016.5 9 5.5 5.5 0 0011 3.5m0 2c1.94 0 3.5 1.57 3.5 3.5a3.5 3.5 0 01-3.5 3.5A3.5 3.5 0 017.5 9 3.5 3.5 0 0111 5.5z"/></svg>

<?xml version="1.0" encoding="UTF-8"?><!DOCTYPE svg PUBLIC "-//W3C//DTD SVG 1.1//EN" "http://www.w3.org/Graphics/SVG/1.1/DTD/svg11.dtd"><svg xmlns="http://www.w3.org/2000/svg" xmlns:xlink="http://www.w3.org/1999/xlink" version="1.1" id="mdi-globe-model" width="24" height="24" viewBox="0 0 24 24"><path d="M17.36,2.64L15.95,4.06C17.26,5.37 18,7.14 18,9A7,7 0 0,1 11,16C9.15,16 7.37,15.26 6.06,13.95L4.64,15.36C6.08,16.8 7.97,17.71 10,17.93V20H6V22H16V20H12V17.94C16.55,17.43 20,13.58 20,9C20,6.62 19.05,4.33 17.36,2.64M11,3.5A5.5,5.5 0 0,0 5.5,9A5.5,5.5 0 0,0 11,14.5A5.5,5.5 0 0,0 16.5,9A5.5,5.5 0 0,0 11,3.5M11,5.5C12.94,5.5 14.5,7.07 14.5,9A3.5,3.5 0 0,1 11,12.5A3.5,3.5 0 0,1 7.5,9A3.5,3.5 0 0,1 11,5.5Z" /></svg>
